X:432
T:
S:Ur von Baumgartens samling, Visby.
R:vals
O:Gotland, Visby
M:3/4
L:1/8
K:G
GG|B4 G2|D4 GG|B4 G2|d4 Bd|g4 d2|^c2 d2 B2|e2 d2 F2|G4::^GA|
g3 f e2|^d2 e2 B2|g2 f2 ^d2|e^def e2|g3 f e2|^d2 e2 B2|
ed^cd=cA|G4::d2|ded^c d2|B4 d2|de d^c d2|g4 f2|f2 e2 d2|
e2 d2 ^c2|d2 A2 f2|d4::Ad|f2 Ad f2|a2 Ad f2|g2 Bd g2|
b2 Bd g2|e2 Ac e2|d2 Bd g2|f2 Adfa|g4:|

